Apricity Icons/24/panel/caffeine-cup-full.svg

<svg xmlns="http://www.w3.org/2000/svg" width="24" height="24" version="1.1">
 <defs>
  <style id="current-color-scheme" type="text/css">
   .ColorScheme-Text { color:#dfdfdf; } .ColorScheme-Highlight { color:#4285f4; }
  </style>
 </defs>
 <path style="fill:currentColor" class="ColorScheme-Text" d="M 11.193359,3 C 10.095159,4.38422 9.7660094,5.0661956 10.162109,5.9472656 10.521209,6.7459356 11.449022,7.15297 10.982422,9 11.748822,8.10008 12.357659,6.9571062 11.755859,6.0351562 11.143659,5.0974562 10.808359,4.528 11.193359,3 Z m 3,0 c -1.0982,1.38422 -1.42735,2.0661956 -1.03125,2.9472656 C 13.521209,6.7459356 14.449022,7.15297 13.982422,9 14.748822,8.10008 15.357659,6.9571063 14.755859,6.0351562 14.143659,5.0974563 13.808359,4.528 14.193359,3 Z m 3,0 c -1.0982,1.38422 -1.42735,2.0661956 -1.03125,2.9472656 C 16.521209,6.7459356 17.449022,7.15297 16.982422,9 17.748822,8.10008 18.357659,6.9571063 17.755859,6.0351562 17.143659,5.0974563 16.808359,4.528 17.193359,3 Z M 8,10 c -2.209139,0 -4,1.790861 -4,4 0,2.209139 1.790861,4 4,4 0.2424594,-8.38e-4 0.4843405,-0.02372 0.7226562,-0.06836 C 9.4620206,19.481091 10.958036,20 14,20 c 6,0 6,-2 6,-10 L 8,10 Z m 0,2 0.00781,0 c 0.011613,1.596219 0.052166,2.938455 0.1953125,3.986328 C 8.1356935,15.994331 8.0678957,15.998894 8,16 6.8954305,16 6,15.104569 6,14 6,12.895431 6.8954305,12 8,12 Z"/>
</svg>

<svg xmlns="http://www.w3.org/2000/svg" width="24" height="24"><defs><style id="current-color-scheme" type="text/css"></style></defs><path d="M11.193 3c-1.098 1.384-1.427 2.066-1.03 2.947.358.799 1.286 1.206.82 3.053.766-.9 1.375-2.043.773-2.965-.612-.938-.948-1.507-.563-3.035zm3 0c-1.098 1.384-1.427 2.066-1.03 2.947.358.799 1.286 1.206.82 3.053.766-.9 1.375-2.043.773-2.965-.612-.938-.948-1.507-.563-3.035zm3 0c-1.098 1.384-1.427 2.066-1.03 2.947.358.799 1.286 1.206.82 3.053.766-.9 1.375-2.043.773-2.965-.612-.938-.948-1.507-.563-3.035zM8 10a4 4 0 1 0 .723 7.932C9.462 19.482 10.958 20 14 20c6 0 6-2 6-10H8zm0 2h.008c.011 1.596.052 2.938.195 3.986A2 2 0 0 1 8 16a2 2 0 0 1 0-4z" fill="currentColor" color="#dfdfdf"/></svg>
